svg/cx.svg

<?xml version="1.0" encoding="UTF-8" standalone="no"?>
<!-- Created with Inkscape (http://www.inkscape.org/) -->
<svg
   xmlns:svg="http://www.w3.org/2000/svg"
   xmlns="http://www.w3.org/2000/svg"
   version="1.0"
   width="1000"
   height="500"
   id="svg697">
  <defs
     id="defs699" />
  <g
     transform="matrix(1.007936,0,0,1.007936,0,3.844975e-5)"
     id="g4031">
    <rect
       width="992.12598"
       height="496.06299"
       x="0"
       y="0"
       id="rect3447"
       style="font-size:12px;fill:#0021ad;fill-opacity:1;fill-rule:evenodd;stroke-width:1pt" />
    <path
       d="M 1.23596e-06,-3.8147e-05 L 992.126,496.063 L 991.558,0.36747 L 1.23596e-06,-3.8147e-05 z"
       id="path3446"
       style="font-size:12px;fill:#1c8a42;fill-opacity:1;fill-rule:evenodd;stroke:none;stroke-width:2.23796005pt;stroke-opacity:1" />
    <path
       d="M 227.50007,97.283752 A 34.921883,34.921875 0 1 1 157.6563,97.283752 A 34.921883,34.921875 0 1 1 227.50007,97.283752 z"
       transform="matrix(2.566054,0,0,2.566053,2.886167,-1.874863)"
       id="path733"
       style="fill:#ffc639;fill-opacity:1;fill-rule:evenodd;stroke:none;stroke-width:1pt;stroke-linecap:butt;stroke-linejoin:miter;stroke-opacity:1" />
    <path
       d="M 441.342,207.775 C 447.472,216.193 456.757,230.287 464.231,226.611 C 470.056,226.63 473.069,227.043 473.859,230.917 C 487.611,233.261 510.725,227.458 525.097,208.734 C 525.097,208.734 526.312,208.891 525.889,201.772 C 525.969,198.667 530.13,199.294 530.23,200.295 C 530.812,201.837 530.707,202.994 531.487,203.032 C 533.265,202.437 535.683,198.47 537.71,195.952 C 538.265,194.841 537.963,193.666 538.092,192.273 C 539.16,189.639 541.828,190.214 542.393,191.59 C 542.898,192.478 542.906,193.163 543.411,194.051 C 546.119,195.855 551.012,194.171 551.394,194.171 C 551.874,191.965 553.294,192.172 553.294,192.172 C 555.098,191.773 554.394,191.934 555.575,192.552 C 554.53,204.462 557.918,204.987 557.638,211.102 C 557.759,217.917 555.575,219.855 555.575,222.465 C 556.268,225.636 566.327,225.746 562.786,228.436 C 559.675,230.099 562.803,233.211 558.115,234.416 C 544.502,241.33 541.892,247.26 541.892,247.26 C 541.892,247.26 538.472,253.722 538.092,253.722 C 535.806,258.033 532.916,255.677 531.313,257.781 C 530.51,260.422 529.608,266.269 531.213,269.31 C 532.014,273.488 531.113,275.767 530.109,279.948 C 529.207,288.666 525.752,289.987 525.353,293.053 C 523.748,296.321 525.69,311.676 524.171,311.676 C 514.03,311.876 506.258,309.736 502.248,308.936 C 506.158,292.094 504.644,277.286 504.644,275.767 C 503.64,263.719 486.589,266.652 483.985,265.049 C 481.819,264.589 480.459,262.827 479.697,262.066 C 477.289,261.813 476.387,261.258 473.979,261.007 C 472.775,261.607 473.501,262.231 470.818,263.055 C 464.022,263.875 461.015,257.13 461.015,257.13 C 461.347,254.856 445.732,257.593 437.243,255.623 C 433.762,257.563 432.243,263.3 429.389,263.984 C 429.308,265.762 424.703,262.523 423.774,260.773 C 423.575,255.682 428.211,253.426 428.211,253.426 C 431.886,250.842 434.072,250.417 435.843,248.634 C 436.731,244.2 436.282,240.922 438.172,237.589 C 439.771,235.046 442.129,236.239 443.728,235.097 C 445.452,233.958 446.176,226.501 444.593,224.457 C 444.593,224.457 437.711,218.248 437.332,217.869 C 435.091,211.446 439.948,207.31 441.342,207.775 z"
       id="path732"
       style="fill:#1c8a42;fill-opacity:1;fill-rule:evenodd;stroke:none;stroke-width:1pt;stroke-linecap:butt;stroke-linejoin:miter;stroke-opacity:1" />
    <path
       d="M 871.019,96.7873 C 866.958,80.721 830.619,46.1182 803.31,24.099 C 796.786,19.6572 792.537,22.3028 793.386,28.6357 C 796.789,34.3068 799.337,40.5422 802.742,46.2132 C 803.687,49.993 805.482,52.6386 806.427,56.4184 C 806.427,56.4184 806.709,62.9386 807.28,63.5056 C 815.783,72.8646 816.917,80.8006 816.917,80.8006 C 821.831,90.2516 826.177,97.1493 834.779,104.898 C 844.418,110.946 837.327,129.753 837.612,139.772 C 837.612,146.104 833.078,145.348 829.108,144.59 C 797.828,115.861 766.83,115.768 739.516,107.452 C 728.84,106.317 728.65,111.421 732.147,114.254 C 751.236,134.668 769.194,148.56 792.82,160.184 C 796.789,162.642 800.756,165.099 804.726,167.557 C 809.263,171.336 813.797,175.116 818.334,178.896 C 828.824,185.701 829.676,191.939 829.676,192.503 C 829.957,205.262 823.153,215.184 821.168,219.154 C 817.586,232.685 810.397,235.031 810.397,235.031 C 751.994,274.44 721.372,284.645 626.68,272.454 C 625.263,271.698 616.189,273.21 626.68,276.991 C 650.781,285.023 709.979,297.901 767.251,270.779 C 781.002,261.138 790.202,264.301 800.163,258.53 C 816.517,248.444 839.881,235.883 844.133,234.466 C 856.891,227.661 892.612,220.006 900.835,213.201 C 910.285,212.444 920.075,211.205 920.737,203.078 C 923.845,201.074 928.378,202.536 931.753,195.921 C 939.236,194.618 937.976,191.936 937.976,191.936 C 936.087,186.646 929.092,184.471 924.086,180.598 C 916.713,178.139 911.612,177.384 906.223,180.029 C 904.522,180.787 902.821,181.542 901.12,182.298 C 901.12,182.298 893.182,181.165 893.182,180.598 C 875.541,179.63 877.258,121.17 871.019,96.7873 z"
       id="path3443"
       style="fill:#ffc639;fill-opacity:1;fill-rule:evenodd;stroke:none;stroke-width:1pt;stroke-linecap:butt;stroke-linejoin:miter;stroke-opacity:0.49685501" />
    <path
       d="M 354.375,73.88562 A 2.070312,1.367188 0 1 1 350.23438,73.88562 A 2.070312,1.367188 0 1 1 354.375,73.88562 z"
       transform="matrix(2.007221,0.63038,-0.674064,1.877137,250.8724,-169.601)"
       id="path3445"
       style="fill:#1c8a42;fill-opacity:1;fill-rule:evenodd;stroke:none;stroke-width:1pt;stroke-linecap:butt;stroke-linejoin:miter;stroke-opacity:1" />
    <path
       d="M 73.826341,356.02127 L 60.023805,343.10041 L 46.056385,355.84285 L 47.552578,336.99557 L 28.881593,334.02019 L 44.54985,323.43887 L 35.234933,306.98618 L 53.276738,312.63878 L 60.33221,295.098 L 67.161716,312.72799 L 85.274664,307.30768 L 75.749113,323.63932 L 91.280117,334.42109 L 72.572443,337.15632 L 73.826341,356.02127 z"
       transform="matrix(0.916571,0,0,0.91657,119.0079,-136.8826)"
       id="polygon3451"
       style="font-size:12px;fill:#ffffff;fill-opacity:1;fill-rule:evenodd;stroke-width:1pt" />
    <path
       d="M 159.75957,320.13498 L 146.82941,311.27788 L 134.24003,320.61301 L 138.66799,305.5787 L 125.89942,296.4902 L 141.56621,296.05559 L 146.26419,281.10346 L 151.51883,295.86916 L 167.19091,295.71673 L 154.77167,305.27705 L 159.75957,320.13498 z"
       transform="matrix(1.05522,0,0,1.02765,62.97,3.91022)"
       id="polygon3461"
       style="font-size:12px;fill:#ffffff;fill-opacity:1;fill-rule:evenodd;stroke-width:1pt" />
    <path
       d="M 73.826341,356.02127 L 60.023805,343.10041 L 46.056385,355.84285 L 47.552578,336.99557 L 28.881593,334.02019 L 44.54985,323.43887 L 35.234933,306.98618 L 53.276738,312.63878 L 60.33221,295.098 L 67.161716,312.72799 L 85.274664,307.30768 L 75.749113,323.63932 L 91.280117,334.42109 L 72.572443,337.15632 L 73.826341,356.02127 z"
       transform="matrix(0.916571,0,0,0.91657,226.5818,-52.52496)"
       id="polygon1880"
       style="font-size:12px;fill:#ffffff;fill-opacity:1;fill-rule:evenodd;stroke-width:1pt" />
    <path
       d="M 73.826341,356.02127 L 60.023805,343.10041 L 46.056385,355.84285 L 47.552578,336.99557 L 28.881593,334.02019 L 44.54985,323.43887 L 35.234933,306.98618 L 53.276738,312.63878 L 60.33221,295.098 L 67.161716,312.72799 L 85.274664,307.30768 L 75.749113,323.63932 L 91.280117,334.42109 L 72.572443,337.15632 L 73.826341,356.02127 z"
       transform="matrix(0.916571,0,0,0.91657,7.824602,-14.63)"
       id="polygon1881"
       style="font-size:12px;fill:#ffffff;fill-opacity:1;fill-rule:evenodd;stroke-width:1pt" />
    <path
       d="M 73.826341,356.02127 L 60.023805,343.10041 L 46.056385,355.84285 L 47.552578,336.99557 L 28.881593,334.02019 L 44.54985,323.43887 L 35.234933,306.98618 L 53.276738,312.63878 L 60.33221,295.098 L 67.161716,312.72799 L 85.274664,307.30768 L 75.749113,323.63932 L 91.280117,334.42109 L 72.572443,337.15632 L 73.826341,356.02127 z"
       transform="matrix(0.916571,0,0,0.91657,121.5094,130.0597)"
       id="polygon1883"
       style="font-size:12px;fill:#ffffff;fill-opacity:1;fill-rule:evenodd;stroke-width:1pt" />
  </g>
</svg>

<?xml version="1.0" encoding="UTF-8"?>
<!-- Created with Inkscape (http://www.inkscape.org/) -->
<svg width="1e3" height="500" version="1.0" xmlns="http://www.w3.org/2000/svg">
  <g transform="matrix(1.0079 0 0 1.0079 0 3.845e-5)" fill-rule="evenodd">
    <rect width="992.13" height="496.06" fill="#0021ad" stroke-width="1pt"/>
    <path d="m1.236e-6 -3.8147e-5 992.13 496.06-0.568-495.7-991.56-0.36751z" fill="#1c8a42"/>
    <path transform="matrix(2.5661 0 0 2.5661 2.8862 -1.8749)" d="m227.5 97.284a34.922 34.922 0 1 1-69.844 0 34.922 34.922 0 1 1 69.844 0z" fill="#ffc639"/>
    <path d="m441.34 207.78c6.13 8.418 15.415 22.512 22.889 18.836 5.825 0.019 8.838 0.432 9.628 4.306 13.752 2.344 36.866-3.459 51.238-22.183 0 0 1.215 0.157 0.792-6.962 0.08-3.105 4.241-2.478 4.341-1.477 0.582 1.542 0.477 2.699 1.257 2.737 1.778-0.595 4.196-4.562 6.223-7.08 0.555-1.111 0.253-2.286 0.382-3.679 1.068-2.634 3.736-2.059 4.301-0.683 0.505 0.888 0.513 1.573 1.018 2.461 2.708 1.804 7.601 0.12 7.983 0.12 0.48-2.206 1.9-1.999 1.9-1.999 1.804-0.399 1.1-0.238 2.281 0.38-1.045 11.91 2.343 12.435 2.063 18.55 0.121 6.815-2.063 8.753-2.063 11.363 0.693 3.171 10.752 3.281 7.211 5.971-3.111 1.663 0.017 4.775-4.671 5.98-13.613 6.914-16.223 12.844-16.223 12.844s-3.42 6.462-3.8 6.462c-2.286 4.311-5.176 1.955-6.779 4.059-0.803 2.641-1.705 8.488-0.1 11.529 0.801 4.178-0.1 6.457-1.104 10.638-0.902 8.718-4.357 10.039-4.756 13.105-1.605 3.268 0.337 18.623-1.182 18.623-10.141 0.2-17.913-1.94-21.923-2.74 3.91-16.842 2.396-31.65 2.396-33.169-1.004-12.048-18.055-9.115-20.659-10.718-2.166-0.46-3.526-2.222-4.288-2.983-2.408-0.253-3.31-0.808-5.718-1.059-1.204 0.6-0.478 1.224-3.161 2.048-6.796 0.82-9.803-5.925-9.803-5.925 0.332-2.274-15.283 0.463-23.772-1.507-3.481 1.94-5 7.677-7.854 8.361-0.081 1.778-4.686-1.461-5.615-3.211-0.199-5.091 4.437-7.347 4.437-7.347 3.675-2.584 5.861-3.009 7.632-4.792 0.888-4.434 0.439-7.712 2.329-11.045 1.599-2.543 3.957-1.35 5.556-2.492 1.724-1.139 2.448-8.596 0.865-10.64 0 0-6.882-6.209-7.261-6.588-2.241-6.423 2.616-10.559 4.01-10.094z" fill="#1c8a42"/>
    <path d="m871.02 96.787c-4.061-16.066-40.4-50.669-67.709-72.688-6.524-4.4418-10.773-1.7962-9.924 4.5367 3.403 5.6711 5.951 11.906 9.356 17.578 0.945 3.7798 2.74 6.4254 3.685 10.205 0 0 0.282 6.5202 0.853 7.0872 8.503 9.359 9.637 17.295 9.637 17.295 4.914 9.451 9.26 16.349 17.862 24.097 9.639 6.048 2.548 24.855 2.833 34.874 0 6.332-4.534 5.576-8.504 4.818-31.28-28.729-62.278-28.822-89.592-37.138-10.676-1.135-10.866 3.969-7.369 6.802 19.089 20.414 37.047 34.306 60.673 45.93 3.969 2.458 7.936 4.915 11.906 7.373 4.537 3.779 9.071 7.559 13.608 11.339 10.49 6.805 11.342 13.043 11.342 13.607 0.281 12.759-6.523 22.681-8.508 26.651-3.582 13.531-10.771 15.877-10.771 15.877-58.403 39.409-89.025 49.614-183.72 37.423-1.417-0.756-10.491 0.756 0 4.537 24.101 8.032 83.299 20.91 140.57-6.212 13.751-9.641 22.951-6.478 32.912-12.249 16.354-10.086 39.718-22.647 43.97-24.064 12.758-6.805 48.479-14.46 56.702-21.265 9.45-0.757 19.24-1.996 19.902-10.123 3.108-2.004 7.641-0.542 11.016-7.157 7.483-1.303 6.223-3.985 6.223-3.985-1.889-5.29-8.884-7.465-13.89-11.338-7.373-2.459-12.474-3.214-17.863-0.569-1.701 0.758-3.402 1.513-5.103 2.269 0 0-7.938-1.133-7.938-1.7-17.641-0.968-15.924-59.428-22.163-83.811z" fill="#ffc639"/>
    <path transform="matrix(2.0072 .63038 -.67406 1.8771 250.87 -169.6)" d="m354.38 73.886a2.0703 1.3672 0 1 1-4.1406 0 2.0703 1.3672 0 1 1 4.1406 0z" fill="#1c8a42"/>
    <path transform="matrix(.91657 0 0 .91657 119.01 -136.88)" d="m73.826 356.02-13.803-12.921-13.967 12.742 1.4962-18.847-18.671-2.9754 15.668-10.581-9.3149-16.453 18.042 5.6526 7.0555-17.541 6.8295 17.63 18.113-5.4203-9.5256 16.332 15.531 10.782-18.708 2.7352 1.2539 18.865z" fill="#fff" stroke-width="1pt"/>
    <path transform="matrix(1.0552 0 0 1.0276 62.97 3.9102)" d="m159.76 320.13-12.93-8.8571-12.589 9.3351 4.428-15.034-12.769-9.0885 15.667-0.43461 4.698-14.952 5.2546 14.766 15.672-0.15243-12.419 9.5603 4.9879 14.858z" fill="#fff" stroke-width="1pt"/>
    <path transform="matrix(.91657 0 0 .91657 226.58 -52.525)" d="m73.826 356.02-13.803-12.921-13.967 12.742 1.4962-18.847-18.671-2.9754 15.668-10.581-9.3149-16.453 18.042 5.6526 7.0555-17.541 6.8295 17.63 18.113-5.4203-9.5256 16.332 15.531 10.782-18.708 2.7352 1.2539 18.865z" fill="#fff" stroke-width="1pt"/>
    <path transform="matrix(.91657 0 0 .91657 7.8246 -14.63)" d="m73.826 356.02-13.803-12.921-13.967 12.742 1.4962-18.847-18.671-2.9754 15.668-10.581-9.3149-16.453 18.042 5.6526 7.0555-17.541 6.8295 17.63 18.113-5.4203-9.5256 16.332 15.531 10.782-18.708 2.7352 1.2539 18.865z" fill="#fff" stroke-width="1pt"/>
    <path transform="matrix(.91657 0 0 .91657 121.51 130.06)" d="m73.826 356.02-13.803-12.921-13.967 12.742 1.4962-18.847-18.671-2.9754 15.668-10.581-9.3149-16.453 18.042 5.6526 7.0555-17.541 6.8295 17.63 18.113-5.4203-9.5256 16.332 15.531 10.782-18.708 2.7352 1.2539 18.865z" fill="#fff" stroke-width="1pt"/>
  </g>
</svg>
